X:54
T:Elmer's Tune
C: Elmer Albrecht, Sammy Gallop, Dick Jurgens - 1941
N:TablEdited by Becky Smith
L:1/8
Q:1/4=141
M:4/4
K:G
z4 z3/2G/ A3/2^A/ | "G7"BB2^A =AA2F | GG FF z3/2^F/ G3/2^G/ | "F"AA2F "C"GG2F | 
"Dm7"=FF ^DE2z/^F/ Gz/4A3/4 | "G7"GG2F =FF2^F | GG F=F z4 | "D7"ee z"G9"e z2 B2 | 
"C"A4 z3/2G/ A3/2^A/ | "G7"BB2^A =AA2F | GG FF2z/^F/ G3/2^G/ | "F"AA2F "C"GG2F | 
"Dm7"=FF ^DE2z/^F/ Gz/4A3/4 | "G7"GG2F =FF2^F | GG F=F z4 | "D7"ee ze "G9"z2 B2 | 
"C"A8 | "F"Ac z2 z4 | "C"AG z2 z4 | "F"A3/2c/ c3/2c/ A3/2c/ A3/2c/ | "C"AG z2 z4 | 
"D7"Ae z2 z4 | dc z2 z4 | "G7"dd B2 c2 A2 | "F"B3/2G/ A3/2G/ "G7"z3/2G/ A3/2^A/ | 
BB2^A =AA2F | GG FF2z/^F/ G3/2^G/ | "F"AA2F "C"GG2F | "Dm7"=FF ^DE2z/^F/ Gz/4A3/4 | 
"G7"GG2F =FF2^F | GG F=F z4 | "D7"e2 e2 "G7"ee zc | "C"z8 | 


